static/images/mobile/copyright/wikipedia-tagline-ko.svg

<?xml version="1.0" encoding="UTF-8"?>
<svg xmlns="http://www.w3.org/2000/svg" width="106" height="11" viewBox="0 0 106 11">
	<title>
		Shape
	</title>
	<g id="Page-1" fill="none" fill-rule="evenodd" stroke="none" stroke-width="1">
		<path id="Shape" fill="#000" fill-rule="nonzero" d="M71.9201382,6.96459121 L71.9201382,10.6781772 L71.1197188,10.6781772 L71.1197188,7.74764946 L64.4232467,7.74764946 L64.4232467,6.96459121 L71.9201382,6.96459121 Z M9.59376651,5.67149882 L9.59376651,6.44269628 L5.18581955,6.44269628 L5.18581955,10.583404 L4.40794696,10.583404 L4.40794696,6.44269628 L0,6.44269628 L0,5.67149882 L9.59376651,5.67149882 Z M19.8526736,0.000164447575 C19.9578838,0.000164447575 20.0104933,0.0397757573 20.0105031,0.118844207 L19.931584,0.462919925 L19.931584,10.5833012 L19.1311636,10.5833012 L19.1311636,0.000164447575 L19.8526736,0.000164447575 Z M46.8051937,5.67143715 L46.8051937,6.44263461 L42.3972468,6.44263461 L42.3972468,10.5833423 L41.6193742,10.5833423 L41.6193742,6.44263461 L37.2114272,6.44263461 L37.2114272,5.67143715 L46.8051937,5.67143715 Z M57.0866408,0.000123335682 C57.1843351,0.000123335682 57.2331866,0.0357365137 57.2331964,0.106952592 L57.1430073,0.451018032 L57.1430073,10.5832601 L56.3425869,10.5832601 L56.3425869,0.000123335682 L57.0866408,0.000123335682 Z M82.6299782,0.000205559469 C82.7126377,0.000205559469 82.7614931,0.0278533081 82.7765338,0.0832515851 L82.6881815,0.48132361 C82.6869555,0.489394097 82.6863433,0.495123752 82.6863446,0.498512547 L82.6863446,4.91211075 L84.5802946,4.91211075 L84.5802946,5.68329793 L82.6863446,5.68329793 L82.6863446,10.5833423 L81.9084721,10.5833423 L81.9084721,0.000205559469 L82.6299782,0.000205559469 Z M93.9034664,0.000123335682 C93.9860869,0.000123335682 94.0349756,0.0277710843 94.0500152,0.0831693613 L93.9672219,0.450007464 C93.9623224,0.475511701 93.9598749,0.491652734 93.9598749,0.498430323 L93.9598749,4.60354543 L95.8538269,4.60354543 L95.8538269,5.37474289 L93.9598749,5.37474289 L93.9598749,10.5832601 L93.1820023,10.5832601 L93.1820023,0.000123335682 L93.9034664,0.000123335682 Z M99.3711145,7.23755363 C99.4312732,7.23755363 99.4650636,7.2573079 99.4725834,7.2968781 L99.3924008,7.66071836 C99.385731,7.69762999 99.3824106,7.72267741 99.3824431,7.73586062 L99.3824431,9.55113574 L106,9.55113574 L106,10.3223229 L98.6045217,10.3223229 L98.6045217,7.23755363 L99.3711145,7.23755363 Z M31.0673588,6.26466122 C31.165056,6.26466122 31.2139076,6.30423142 31.2139144,6.38331015 L31.1237253,6.75110743 L31.1237253,8.54260959 L35.5316722,8.54260959 L35.5316722,9.31379678 L25.9379047,9.31379678 L25.9379047,8.54260959 L30.3458517,8.54260959 L30.3458517,6.26462011 L31.0673588,6.26466122 Z M88.8867835,0.901871616 C88.9018231,0.925613735 88.909343,0.949355853 88.909343,0.973097972 L88.8416645,1.57814171 C88.8416547,2.93860623 88.9656635,3.97872686 89.2136909,4.69850362 C89.4767287,5.44992626 89.9427042,6.17366004 90.6116076,6.86971524 L91.2474286,7.53033026 C91.3195796,7.60341504 91.3748212,7.65799132 91.4131536,7.69405967 L91.5473087,7.80700475 L91.5473087,7.80700475 C91.4764075,7.9154873 91.3310222,8.07335445 91.1110854,8.28061917 L90.9272256,8.44767195 C90.9194128,8.44767195 90.7844172,8.32507628 90.5213794,8.07987467 C89.8599958,7.41546535 89.3339008,6.71545314 88.9430845,5.9798483 L88.810562,5.72125467 C88.6916902,5.48235306 88.5517283,5.18493368 88.3906798,4.82899278 C87.9773139,5.92844815 87.3647896,6.94087993 86.5530973,7.86630866 L86.1660406,8.26970199 C86.085874,8.34879899 86.0307589,8.3962581 86.0006926,8.41207933 L85.2679195,7.91377234 L85.3862958,7.78622141 L85.3862958,7.78622141 L85.7188846,7.45102714 C86.0044819,7.17418993 86.2900791,6.83803853 86.5756763,6.44255239 C87.3122094,5.44592813 87.7631452,4.37812891 87.9284936,3.23913417 C88.0036919,2.68545974 88.0412324,1.89449774 88.0412324,0.866227604 L88.6274959,0.866309828 C88.7552548,0.842567709 88.841684,0.854438979 88.8867835,0.901871616 Z M55.6774493,6.85780307 L55.6774493,7.65273237 L55.0301962,7.70340894 C54.2365419,7.77030231 52.9262018,7.89112202 51.0991747,8.06588417 L49.3530036,8.23408539 C49.3229438,8.23408539 49.1688684,8.28948366 48.89079,8.40018771 L48.8056117,8.42129182 C48.7947556,8.4230505 48.7855697,8.42392983 48.7780541,8.42392983 C48.6352554,8.42392983 48.5074887,8.14709262 48.3947547,7.59341819 L48.3797223,7.49322241 C48.3772171,7.48092234 48.3747116,7.47081909 48.372205,7.46290848 L49.6912093,7.34424928 L49.6912093,7.34424928 L55.6774493,6.85780307 Z M77.2299607,3.85617231 C77.3051101,3.85617231 77.3426917,3.88782847 77.3426956,3.951038 L77.2637862,4.34256713 L77.2750562,7.18999745 L81.277156,6.83407123 L81.277156,7.62899025 C79.9919706,7.74170365 78.7363819,7.85664287 77.5103887,7.97380358 L75.1337911,8.20071361 C75.0393756,8.20911505 74.9564686,8.21628137 74.88507,8.22221433 C74.8700401,8.22221433 74.791121,8.26969856 74.6483262,8.36458481 C74.5881969,8.39624097 74.5393473,8.41206905 74.5017706,8.41206905 C74.4491611,8.41206905 74.3965497,8.37249885 74.3439411,8.29342013 L74.1410171,7.4154448 L76.1903749,7.283959 C76.2985761,7.27598595 76.3970877,7.26840437 76.4859097,7.26121353 L76.4859097,3.85610036 L77.2299607,3.85617231 Z M16.3127854,1.12732924 L16.3127854,4.80533288 L12.3332324,4.80533288 L12.3332324,7.35620256 C13.9791628,7.35620256 15.3507737,7.26524249 16.4480672,7.08331209 L17.6881553,6.86975635 L17.7783444,6.86975635 L17.8459838,7.55789751 C17.8459838,7.59746771 17.8421751,7.62511546 17.8347138,7.64094354 L16.5946267,7.87824139 C15.3620496,8.11552896 13.6747806,8.23416761 11.532812,8.23416761 L11.532812,4.02227464 L15.5349158,4.02227464 L15.5349158,1.8985267 L11.532812,1.8985267 L11.532812,1.12732924 L16.3127854,1.12732924 Z M105.582874,0.000154169602 C105.673014,0.000154169602 105.718163,0.0357673477 105.718163,0.106983426 L105.628022,0.486641488 L105.628022,8.17480203 L104.8276,8.17480203 L104.8276,3.9154351 L102.651811,3.9154351 L102.651811,3.14424792 L104.8276,3.14424792 L104.8276,0.000154169602 L105.582874,0.000154169602 Z M103.080148,0.890041668 L103.080148,1.67309991 L100.633791,1.67309991 C100.633791,3.24185384 101.186847,4.46490302 102.292982,5.3422388 L102.493924,5.49347404 C102.92231,5.8098609 103.222937,6.01155585 103.395805,6.09855889 C103.320607,6.23302562 103.128988,6.43472057 102.820851,6.70365402 L102.764501,6.75113826 C101.659682,6.11836455 100.81042,5.12965433 100.216685,3.78500762 C100.006237,4.32287453 99.5177219,4.98728385 98.7511193,5.77824585 C98.255084,6.29238092 97.834208,6.64831742 97.4884912,6.84605535 L97.1108261,6.49605438 C97.0018484,6.39718284 96.9097817,6.31610762 96.8346274,6.25283127 L96.8346274,6.22908916 C98.6496593,5.17207433 99.6326669,3.815965 99.7836502,2.16076117 L99.7995592,1.92226882 C99.807372,1.84312843 99.8107901,1.76013379 99.8107901,1.67312047 L97.3080641,1.67312047 L97.3080641,0.890041668 L103.080148,0.890041668 Z M71.8750446,0.000123335682 C71.950194,0.000123335682 71.9877795,0.031779494 71.9877795,0.0949890308 L71.9201401,0.474657371 L71.9201401,6.35941386 L71.1197207,6.35941386 L71.1197207,3.96278573 L69.6541627,3.96278573 L69.6541627,6.35941386 L68.8650162,6.35941386 L68.8650162,0.237328685 L69.5977953,0.237328685 C69.6954915,0.237338963 69.744343,0.276898883 69.7443509,0.355967333 L69.6541617,0.700043051 L69.6541617,3.19154715 L71.1197198,3.19154715 L71.1197198,0 L71.8750446,0.000123335682 Z M80.4767357,1.12732924 L80.4767357,2.06462903 C80.4767357,3.61492772 80.3414462,4.94770337 80.0708886,6.06296627 L79.293016,5.94431734 C79.5485427,4.55222751 79.6763095,3.20362377 79.6763153,1.8985267 L74.8061548,1.8985267 L74.8061548,1.12732924 L80.4767357,1.12732924 Z M64.186501,0.593429632 C64.2842031,0.59343991 64.3330546,0.63299983 64.3330566,0.71206828 L64.2315955,1.06800478 L64.2315955,2.33747839 L66.8808723,2.33747839 L66.8808723,0.593398798 L67.6474719,0.593398798 C67.7151113,0.593409076 67.748934,0.628960586 67.748934,0.700176664 L67.6812946,1.06797394 L67.6812946,5.68321571 L63.442449,5.68321571 L63.442449,0.593347408 L64.186501,0.593429632 Z M51.9571936,0.723908505 C52.7087565,0.723908505 53.3287996,0.981012011 53.8173239,1.49512652 C54.2231641,1.92225854 54.4260941,2.44034035 54.4260941,3.04938223 C54.4260941,4.17255917 54.0014522,4.94374635 53.1521862,5.36296433 C52.761366,5.5527985 52.3029094,5.64770531 51.7768163,5.64770531 C50.8674161,5.64770531 50.1759746,5.32737171 49.7024891,4.68668396 C49.3717973,4.24374441 49.2064538,3.70193076 49.2064538,3.06124301 C49.2064538,2.38892993 49.4845322,1.81548068 50.0406949,1.34089525 C50.4089604,1.0245084 50.8185645,0.834684503 51.2695082,0.771392743 C51.4799432,0.739736584 51.709172,0.723908505 51.9571936,0.723908505 Z M34.2577644,1.07987584 L34.2577644,5.63584453 L27.2230875,5.63584453 L27.2230875,1.07987584 L34.2577644,1.07987584 Z M66.8808742,3.10862446 L64.2315975,3.10862446 L64.2315975,4.91202852 L66.8808742,4.91202852 L66.8808742,3.10862446 Z M51.6415297,1.49509569 C51.3859981,1.49509569 51.1079178,1.57814171 50.8072936,1.74425432 C50.2887096,2.04482338 50.029421,2.51545178 50.029421,3.15612926 C50.029421,3.77308517 50.2699198,4.2476706 50.7509261,4.57987525 C51.0365185,4.77761319 51.3634503,4.87648729 51.7317227,4.87648729 C52.768882,4.87648729 53.3738932,4.43750477 53.5467594,3.55951916 C53.5768192,3.40924491 53.5918491,3.24314258 53.5918491,3.06121217 C53.5918491,2.30189605 53.2047859,1.81544984 52.4306762,1.60188383 C52.1901696,1.53065748 51.9271211,1.49509569 51.6415297,1.49509569 Z M33.457345,1.85106302 L28.0122339,1.85106302 L28.0122339,4.86464707 L33.457345,4.86464707 L33.457345,1.85106302 Z M4.73487885,0.356131781 C7.27517082,0.356131781 8.5453295,1.0245084 8.5453295,2.36124107 C8.5453295,2.77254501 8.48144025,3.09684591 8.35367934,3.33413348 C7.92527663,4.16464513 6.64009685,4.57990609 4.4981351,4.57990609 C3.10021453,4.57990609 2.11190392,4.28725107 1.53319937,3.70193076 C1.20250659,3.37764014 1.03716411,2.9663362 1.03716411,2.46801893 C1.03716411,1.24993519 1.98037918,0.55783701 3.86681812,0.391734681 C4.13737766,0.367992562 4.42673091,0.356131781 4.73487885,0.356131781 Z M45.722936,0.415456243 L45.722936,1.19851449 L39.2632086,1.19851449 L39.2632086,3.50023581 L45.722936,3.50023581 L45.722936,4.28329405 L38.4740622,4.28329405 L38.4740622,0.415456243 L45.722936,0.415456243 Z M5.20836732,1.13923114 L4.48686122,1.13923114 C3.38956778,1.13923114 2.62296907,1.34489338 2.18706314,1.75618705 C1.9691053,1.9618493 1.86013126,2.21100793 1.86013126,2.50365267 C1.86013126,3.19970787 2.50271822,3.61892585 3.78790288,3.76129634 C4.05846242,3.79295249 4.33654277,3.80878057 4.62214392,3.80878057 C6.68894839,3.80878057 7.72236235,3.36584103 7.72236235,2.47995166 C7.72236235,1.7127215 7.07600571,1.27373897 5.78331684,1.16299381 C5.60293372,1.14716573 5.41128453,1.13923114 5.20836732,1.13923114 Z"/>
	</g>
</svg>

<svg xmlns="http://www.w3.org/2000/svg" width="106" height="11"><path fill="#000" fill-rule="nonzero" d="M71.92 6.965v3.713h-.8v-2.93h-6.697v-.783h7.497zM9.594 5.67v.772H5.186v4.14h-.778v-4.14H0V5.67h9.594zM19.853.001c.105 0 .157.039.158.118l-.08.344v10.12h-.8V0h.722zm26.952 5.67v.772h-4.408v4.14h-.778v-4.14h-4.408V5.67h9.594zM57.087.001c.097 0 .146.035.146.106l-.09.344v10.132h-.8V0h.744zM82.63 0c.083 0 .131.027.147.082l-.089.398a.132.132 0 0 0-.002.018v4.413h1.894v.771h-1.894v4.9h-.778V0h.722zm11.273 0c.083 0 .132.027.147.082l-.083.367a.36.36 0 0 0-.007.048v4.106h1.894v.77H93.96v5.21h-.778V0h.721zm5.468 7.237c.06 0 .094.02.102.059l-.08.364a.512.512 0 0 0-.01.075V9.55H106v.771h-7.395V7.238h.766zm-68.304-.973c.098 0 .147.04.147.118l-.09.368v1.792h4.408v.77h-9.594v-.77h4.408V6.265h.721zM88.887.902a.132.132 0 0 1 .022.071l-.067.605c0 1.36.124 2.4.372 3.12.263.752.729 1.476 1.398 2.172l.635.66c.073.073.128.128.166.164l.134.113c-.07.108-.216.266-.436.474l-.184.167a7.43 7.43 0 0 1-.406-.368 8.92 8.92 0 0 1-1.578-2.1l-.132-.259a27.527 27.527 0 0 1-.42-.892 9.828 9.828 0 0 1-1.838 3.037l-.387.404a.966.966 0 0 1-.165.142l-.733-.498.118-.128.333-.335c.285-.277.571-.613.857-1.008.736-.997 1.187-2.065 1.352-3.204.076-.554.113-1.345.113-2.373h.586c.128-.023.215-.012.26.036zm-33.21 5.956v.795l-.647.05c-.793.067-2.104.188-3.93.363l-1.747.168c-.03 0-.184.055-.462.166l-.085.021a.177.177 0 0 1-.028.003c-.143 0-.27-.277-.383-.83l-.015-.1a.304.304 0 0 0-.008-.031l1.32-.119 5.985-.486zM77.23 3.856c.075 0 .113.032.113.095l-.08.392.012 2.847 4.002-.356v.795c-1.285.113-2.54.228-3.767.345l-2.376.227-.249.021c-.015 0-.094.048-.237.143a.338.338 0 0 1-.146.047c-.053 0-.105-.04-.158-.119l-.203-.878 2.05-.131.295-.023V3.856h.744zM16.313 1.127v3.678h-3.98v2.551c1.646 0 3.018-.09 4.115-.273l1.24-.213h.09l.068.688c0 .04-.004.067-.011.083l-1.24.237c-1.233.238-2.92.356-5.062.356V4.022h4.002V1.9h-4.002v-.772h4.78zM105.583 0c.09 0 .135.036.135.107l-.09.38v7.688h-.8v-4.26h-2.176v-.77h2.176V0h.755zm-2.503.89v.783h-2.446c0 1.569.553 2.792 1.659 3.67l.2.15c.43.317.73.519.903.606-.075.134-.267.336-.575.605l-.056.047c-1.105-.633-1.955-1.621-2.548-2.966-.21.538-.7 1.202-1.466 1.993-.496.514-.917.87-1.263 1.068l-.377-.35c-.11-.099-.201-.18-.276-.243v-.024c1.815-1.057 2.798-2.413 2.949-4.068l.016-.239c.007-.079.01-.162.01-.249h-2.502V.89h5.772zM71.875 0c.075 0 .113.032.113.095l-.068.38v5.884h-.8V3.963h-1.466v2.396h-.789V.237h.733c.097 0 .146.04.146.119l-.09.344v2.492h1.466V0h.755zm8.602 1.127v.938c0 1.55-.136 2.883-.406 3.998l-.778-.119a22.4 22.4 0 0 0 .383-4.045h-4.87v-.772h5.67zM64.187.593c.097 0 .146.04.146.12l-.101.355v1.27h2.649V.592h.766c.068 0 .102.036.102.107l-.068.368v4.615h-4.239V.593h.745zm-12.23.13c.752 0 1.372.258 1.86.772.406.427.61.945.61 1.554 0 1.124-.426 1.895-1.275 2.314-.39.19-.85.285-1.375.285-.91 0-1.601-.32-2.075-.961-.33-.443-.496-.985-.496-1.626 0-.672.279-1.246.835-1.72A2.361 2.361 0 0 1 51.27.77c.21-.031.44-.047.687-.047zm-17.7.357v4.556h-7.034V1.08h7.035zm32.624 2.029h-2.65v1.803h2.65V3.109zM51.64 1.495c-.255 0-.533.083-.834.25-.518.3-.778.77-.778 1.411 0 .617.24 1.092.722 1.424.286.198.612.296.98.296 1.038 0 1.643-.438 1.816-1.316.03-.15.045-.317.045-.499 0-.76-.387-1.246-1.161-1.46a2.77 2.77 0 0 0-.79-.106zm-18.184.356h-5.445v3.014h5.445V1.85zM4.735.356c2.54 0 3.81.669 3.81 2.005 0 .412-.064.736-.191.973-.429.83-1.714 1.246-3.856 1.246-1.398 0-2.386-.293-2.965-.878-.33-.324-.496-.736-.496-1.234 0-1.218.943-1.91 2.83-2.076.27-.024.56-.036.868-.036zm40.988.06v.783h-6.46V3.5h6.46v.783h-7.249V.415h7.249zm-40.515.723h-.721c-1.097 0-1.864.206-2.3.617a.99.99 0 0 0-.327.748c0 .696.643 1.115 1.928 1.257.27.032.549.048.834.048 2.067 0 3.1-.443 3.1-1.329 0-.767-.646-1.206-1.939-1.317a6.59 6.59 0 0 0-.575-.024z"/></svg>
